!! Aleut songs
!! From: Shirley A. Hauck,
!! "Extinction and Reconstruction of Aleut Music and Dance"
!! PhD dissertation, University of Pittsburgh, 1986.
!! page 215
!! Why I Do This?
**kern	**silbe
*clefG2	*
*k[f#c#]	*
*M4/4	*
*>[A,A,B,Coda]	*>[A,A,B,Coda]
*>A	*>A
8A	.
8A	.
=1	=1
4d	.
4d	.
8f#	.
8e	.
8d	.
8c#	.
=2	=2
2B	.
4B	.
8B	.
8B	.
=3	=3
4A	.
4A	.
8d	.
8c#	.
8B	.
8c#	.
=4	=4
4.d	.
8d	.
4d	.
*>B	*>B
=:||	=:||
8A	.
8A	.
=5	=5
8d	.
8d	.
8f#	.
8e	.
8d	.
8d	.
8A	.
8A	.
=6	=6
8B	.
8B	.
8c#	.
8c#	.
4.d	.
8d	.
=7	=7
2d	.
2r	.
*>Coda	*>Coda
!! Spoken
=8	=8
8x	In-
8x	-a-
4x	-xho
8x	ho
8x	ho
4x	ho
==	==
*-	*-
